;FLAVOR:Marlin
;TIME:4011
;Filament used: 2.91806m
;Layer height: 0.2
;MINX:66.7
;MINY:24.2
;MINZ:0.3
;MAXX:153.3
;MAXY:195.8
;MAXZ:0.9
;TARGET_MACHINE.NAME:Anet A8
;Generated with Cura_SteamEngine 5.9.0
M140 S60
M105
M190 S60
M104 S200
M105
M109 S200
M82 ;absolute extrusion mode
; Default start code
G28 ; Home extruder
M420 S1; load abl
G1 Z15 F1000
M107 ; Turn off fan
G90 ; Absolute positioning
M82 ; Extruder in absolute mode
M190 S60
G92 E0
G92 E0
G1 F1500 E-6.5
;LAYER_COUNT:4
;LAYER:0
M107
M204 S1000
G0 F7500 X78.678 Y25.179 Z0.3
;TYPE:SKIRT
G1 F1500 E0
G1 X79.551 Y24.902 E0.04569
G1 X80.386 Y24.684 E0.08875
G1 X81.209 Y24.505 E0.13077
G1 X81.92 Y24.386 E0.16673
G1 X82.973 Y24.268 E0.2196
G1 X83.814 Y24.212 E0.26165
G1 X84.305 Y24.2 E0.28615
G1 X135.751 Y24.2 E2.8528
G1 X136.606 Y24.232 E2.89549
G1 X137.468 Y24.306 E2.93865
G1 X138.065 Y24.383 E2.96868
G1 X139.191 Y24.591 E3.02581
G1 X140.05 Y24.793 E3.06983
G1 X140.748 Y24.994 E3.10607
G1 X141.704 Y25.318 E3.15643
G1 X142.448 Y25.609 E3.19629
G1 X143.245 Y25.97 E3.23994
G1 X143.996 Y26.357 E3.28209
G1 X144.801 Y26.82 E3.32842
G1 X145.505 Y27.277 E3.37029
G1 X146.269 Y27.827 E3.41726
G1 X146.94 Y28.363 E3.46011
G1 X147.546 Y28.891 E3.50021
G1 X148.149 Y29.471 E3.54195
G1 X148.774 Y30.139 E3.58759
G1 X149.406 Y30.888 E3.63648
G1 X149.922 Y31.559 E3.67871
G1 X150.311 Y32.118 E3.71269
G1 X150.885 Y33.053 E3.76742
G1 X151.293 Y33.798 E3.8098
G1 X151.664 Y34.549 E3.85159
G1 X152.008 Y35.339 E3.89458
G1 X152.32 Y36.164 E3.93858
G1 X152.531 Y36.816 E3.97277
G1 X152.818 Y37.885 E4.02799
G1 X152.993 Y38.69 E4.06909
G1 X153.111 Y39.398 E4.1049
G1 X153.232 Y40.476 E4.15902
G1 X153.288 Y41.314 E4.20092
G1 X153.3 Y41.804 E4.22538
G1 X153.3 Y178.248 E11.03259
G1 X153.268 Y179.114 E11.07583
G1 X153.207 Y179.848 E11.11257
G1 X153.075 Y180.839 E11.16245
G1 X152.956 Y181.494 E11.19567
G1 X152.703 Y182.555 E11.25008
G1 X152.472 Y183.356 E11.29167
G1 X152.191 Y184.176 E11.33492
G1 X151.851 Y185.029 E11.38073
G1 X151.501 Y185.797 E11.42284
G1 X151.114 Y186.545 E11.46485
G1 X150.671 Y187.302 E11.50861
G1 X150.193 Y188.046 E11.55273
G1 X149.673 Y188.769 E11.59716
G1 X149.137 Y189.44 E11.64001
G1 X148.609 Y190.046 E11.68011
G1 X148.029 Y190.649 E11.72185
G1 X147.361 Y191.274 E11.76749
G1 X146.612 Y191.906 E11.81638
G1 X145.941 Y192.422 E11.85861
G1 X145.383 Y192.811 E11.89255
G1 X144.449 Y193.385 E11.94724
G1 X143.752 Y193.768 E11.98692
G1 X142.915 Y194.182 E12.03351
G1 X142.229 Y194.481 E12.07084
G1 X141.322 Y194.821 E12.11917
G1 X140.449 Y195.098 E12.16486
G1 X139.614 Y195.316 E12.20791
G1 X138.791 Y195.495 E12.24993
G1 X138.08 Y195.614 E12.2859
G1 X137.027 Y195.732 E12.33876
G1 X136.186 Y195.788 E12.38081
G1 X135.695 Y195.8 E12.40532
G1 X84.252 Y195.8 E14.97182
G1 X83.386 Y195.768 E15.01505
G1 X82.652 Y195.707 E15.0518
G1 X81.66 Y195.575 E15.10173
G1 X81.005 Y195.456 E15.13494
G1 X79.943 Y195.202 E15.18942
G1 X79.142 Y194.97 E15.23102
G1 X78.283 Y194.676 E15.27632
G1 X77.531 Y194.377 E15.31669
G1 X76.693 Y193.996 E15.36262
G1 X75.978 Y193.627 E15.40276
G1 X75.271 Y193.22 E15.44346
G1 X74.469 Y192.701 E15.49112
G1 X73.709 Y192.156 E15.53778
G1 X73.071 Y191.644 E15.57859
G1 X72.4 Y191.057 E15.62307
G1 X71.828 Y190.503 E15.66279
G1 X71.244 Y189.883 E15.70529
G1 X70.593 Y189.114 E15.75555
G1 X70.107 Y188.483 E15.79529
G1 X69.661 Y187.837 E15.83445
G1 X69.112 Y186.939 E15.88697
G1 X68.698 Y186.189 E15.9297
G1 X68.321 Y185.422 E15.97234
G1 X67.976 Y184.615 E16.01613
G1 X67.685 Y183.838 E16.05752
G1 X67.397 Y182.929 E16.1051
G1 X67.184 Y182.114 E16.14712
G1 X67.005 Y181.291 E16.18914
G1 X66.886 Y180.58 E16.22511
G1 X66.768 Y179.527 E16.27797
G1 X66.712 Y178.686 E16.32002
G1 X66.7 Y178.196 E16.34447
G1 X66.7 Y41.752 E23.15169
G1 X66.732 Y40.886 E23.19493
G1 X66.793 Y40.152 E23.23167
G1 X66.925 Y39.161 E23.28155
G1 X67.044 Y38.506 E23.31476
G1 X67.297 Y37.445 E23.36918
G1 X67.528 Y36.644 E23.41077
G1 X67.809 Y35.824 E23.45402
G1 X68.149 Y34.971 E23.49983
G1 X68.499 Y34.203 E23.54194
G1 X68.886 Y33.455 E23.58395
G1 X69.329 Y32.698 E23.62771
G1 X69.807 Y31.954 E23.67183
G1 X70.327 Y31.231 E23.71626
G1 X70.863 Y30.56 E23.75911
G1 X71.391 Y29.954 E23.79921
G1 X71.971 Y29.351 E23.84095
G1 X72.639 Y28.726 E23.88659
G1 X73.388 Y28.094 E23.93548
G1 X74.059 Y27.578 E23.97771
G1 X74.617 Y27.189 E24.01165
G1 X75.551 Y26.615 E24.06634
G1 X76.248 Y26.232 E24.10602
G1 X77.085 Y25.818 E24.1526
G1 X77.771 Y25.519 E24.18994
G1 X78.678 Y25.179 E24.23826
G0 F7500 X79.652 Y25.289
G1 F1500 X80.471 Y25.075 E24.2805
G1 X81.275 Y24.9 E24.32155
G1 X81.986 Y24.781 E24.35751
G1 X83 Y24.667 E24.40842
G1 X83.824 Y24.612 E24.44962
G1 X84.315 Y24.6 E24.47412
G1 X135.736 Y24.6 E27.03953
G1 X136.572 Y24.631 E27.08127
G1 X137.417 Y24.703 E27.12358
G1 X138.014 Y24.78 E27.15361
G1 X139.1 Y24.98 E27.2087
G1 X139.939 Y25.177 E27.25169
G1 X140.62 Y25.373 E27.28705
G1 X141.558 Y25.691 E27.33646
G1 X142.302 Y25.982 E27.37632
G1 X143.062 Y26.326 E27.41794
G1 X143.797 Y26.704 E27.45917
G1 X144.583 Y27.156 E27.50441
G1 X145.271 Y27.602 E27.54531
G1 X146.035 Y28.152 E27.59228
G1 X146.677 Y28.665 E27.63328
G1 X147.283 Y29.193 E27.67338
G1 X147.857 Y29.745 E27.71311
G1 X148.468 Y30.397 E27.75769
G1 X149.089 Y31.132 E27.80569
G1 X149.594 Y31.788 E27.847
G1 X149.97 Y32.327 E27.87978
G1 X150.534 Y33.245 E27.93354
G1 X150.934 Y33.975 E27.97506
G1 X151.297 Y34.709 E28.01592
G1 X151.634 Y35.481 E28.05794
G1 X151.939 Y36.287 E28.10094
G1 X152.15 Y36.939 E28.13513
G1 X152.427 Y37.97 E28.18839
G1 X152.598 Y38.756 E28.22852
G1 X152.716 Y39.464 E28.26433
G1 X152.833 Y40.503 E28.31649
G1 X152.888 Y41.324 E28.35754
G1 X152.9 Y41.814 E28.382
G1 X152.9 Y178.233 E35.18797
G1 X152.869 Y179.081 E35.2303
G1 X152.808 Y179.815 E35.26705
G1 X152.681 Y180.768 E35.31501
G1 X152.567 Y181.401 E35.3471
G1 X152.319 Y182.444 E35.40059
G1 X152.094 Y183.226 E35.44119
G1 X151.819 Y184.028 E35.48348
G1 X151.487 Y184.863 E35.52831
G1 X151.146 Y185.613 E35.56942
G1 X150.769 Y186.343 E35.61041
G1 X150.335 Y187.086 E35.65334
G1 X149.868 Y187.812 E35.6964
G1 X149.348 Y188.535 E35.74083
G1 X148.835 Y189.177 E35.78183
G1 X148.307 Y189.783 E35.82193
G1 X147.755 Y190.357 E35.86166
G1 X147.103 Y190.968 E35.90624
G1 X146.368 Y191.589 E35.95425
G1 X145.712 Y192.094 E35.99555
G1 X145.173 Y192.47 E36.02834
G1 X144.256 Y193.034 E36.08205
G1 X143.559 Y193.417 E36.12173
G1 X142.755 Y193.815 E36.16648
G1 X142.089 Y194.106 E36.20274
G1 X141.182 Y194.446 E36.25107
G1 X140.348 Y194.711 E36.29473
G1 X139.529 Y194.925 E36.33696
G1 X138.725 Y195.1 E36.37801
G1 X138.014 Y195.219 E36.41397
G1 X137 Y195.333 E36.46488
G1 X136.176 Y195.388 E36.50608
G1 X135.685 Y195.4 E36.53059
G1 X84.267 Y195.4 E39.09584
G1 X83.419 Y195.369 E39.13818
G1 X82.685 Y195.308 E39.17492
G1 X81.732 Y195.181 E39.22289
G1 X81.077 Y195.062 E39.2561
G1 X80.054 Y194.818 E39.30857
G1 X79.272 Y194.592 E39.34918
G1 X78.431 Y194.304 E39.39353
G1 X77.679 Y194.005 E39.4339
G1 X76.877 Y193.641 E39.47784
G1 X76.178 Y193.28 E39.51709
G1 X75.471 Y192.873 E39.55779
G1 X74.702 Y192.376 E39.60347
G1 X73.959 Y191.844 E39.64906
G1 X73.334 Y191.343 E39.68903
G1 X72.678 Y190.77 E39.73248
G1 X72.119 Y190.229 E39.77129
G1 X71.549 Y189.624 E39.81276
G1 X70.91 Y188.87 E39.86207
G1 X70.436 Y188.255 E39.90081
G1 X70.002 Y187.628 E39.93885
G1 X69.462 Y186.746 E39.99045
G1 X69.057 Y186.013 E40.03223
G1 X68.689 Y185.264 E40.07386
G1 X68.351 Y184.475 E40.11669
G1 X68.06 Y183.698 E40.15808
G1 X67.784 Y182.828 E40.20362
G1 X67.575 Y182.029 E40.24482
G1 X67.4 Y181.225 E40.28587
G1 X67.281 Y180.514 E40.32184
G1 X67.167 Y179.5 E40.37274
G1 X67.112 Y178.676 E40.41395
G1 X67.1 Y178.186 E40.4384
G1 X67.1 Y41.767 E47.24437
G1 X67.131 Y40.919 E47.28671
G1 X67.192 Y40.185 E47.32345
G1 X67.319 Y39.232 E47.37142
G1 X67.433 Y38.599 E47.40351
G1 X67.681 Y37.556 E47.45699
G1 X67.906 Y36.774 E47.49759
G1 X68.181 Y35.972 E47.53989
G1 X68.513 Y35.137 E47.58472
G1 X68.854 Y34.387 E47.62582
G1 X69.231 Y33.657 E47.66681
G1 X69.665 Y32.914 E47.70974
G1 X70.132 Y32.188 E47.75281
G1 X70.652 Y31.465 E47.79724
G1 X71.165 Y30.823 E47.83824
G1 X71.693 Y30.217 E47.87834
G1 X72.245 Y29.643 E47.91807
G1 X72.897 Y29.032 E47.96265
G1 X73.632 Y28.411 E48.01065
G1 X74.288 Y27.906 E48.05195
G1 X74.827 Y27.53 E48.08474
G1 X75.744 Y26.966 E48.13845
G1 X76.441 Y26.583 E48.17813
G1 X77.245 Y26.185 E48.22289
G1 X77.911 Y25.894 E48.25915
G1 X78.818 Y25.554 E48.30747
G1 X79.652 Y25.289 E48.35113
G0 F7500 X80.556 Y25.466
G1 F1500 X81.341 Y25.295 E48.39121
G1 X82.052 Y25.176 E48.42718
G1 X83.027 Y25.066 E48.47613
G1 X83.834 Y25.012 E48.51648
G1 X84.325 Y25 E48.54098
G1 X135.721 Y25 E51.10514
G1 X136.538 Y25.03 E51.14593
G1 X137.366 Y25.1 E51.18739
G1 X137.963 Y25.177 E51.21742
G1 X139.009 Y25.369 E51.27047
G1 X139.828 Y25.561 E51.31244
G1 X140.492 Y25.752 E51.34691
G1 X141.412 Y26.063 E51.39536
G1 X142.137 Y26.347 E51.43421
G1 X142.879 Y26.682 E51.47483
G1 X143.598 Y27.051 E51.51514
G1 X144.365 Y27.492 E51.55928
G1 X145.053 Y27.938 E51.60019
G1 X145.785 Y28.464 E51.64516
G1 X146.414 Y28.967 E51.68534
G1 X147.02 Y29.495 E51.72544
G1 X147.565 Y30.019 E51.76316
G1 X148.176 Y30.671 E51.80774
G1 X148.772 Y31.376 E51.8538
G1 X149.266 Y32.017 E51.89417
G1 X149.629 Y32.537 E51.92581
G1 X150.183 Y33.437 E51.97854
G1 X150.575 Y34.152 E52.01922
G1 X150.938 Y34.886 E52.06007
G1 X151.26 Y35.622 E52.10015
G1 X151.558 Y36.41 E52.14218
G1 X151.769 Y37.062 E52.17637
G1 X152.036 Y38.055 E52.22767
G1 X152.203 Y38.822 E52.26683
G1 X152.321 Y39.53 E52.30264
G1 X152.434 Y40.53 E52.35285
G1 X152.488 Y41.334 E52.39305
G1 X152.5 Y41.824 E52.41751
G1 X152.5 Y178.219 E59.22228
G1 X152.47 Y179.048 E59.26367
G1 X152.409 Y179.782 E59.30041
G1 X152.287 Y180.697 E59.34646
G1 X152.173 Y181.33 E59.37855
G1 X151.935 Y182.334 E59.43003
G1 X151.716 Y183.096 E59.46959
G1 X151.447 Y183.881 E59.51099
G1 X151.123 Y184.698 E59.55483
G1 X150.791 Y185.43 E59.59493
G1 X150.424 Y186.141 E59.63485
G1 X149.998 Y186.87 E59.67698
G1 X149.543 Y187.579 E59.71901
G1 X149.036 Y188.285 E59.76237
G1 X148.533 Y188.914 E59.80255
G1 X148.005 Y189.52 E59.84265
G1 X147.481 Y190.065 E59.88037
G1 X146.829 Y190.676 E59.92495
G1 X146.124 Y191.272 E59.97101
G1 X145.483 Y191.766 E60.01138
G1 X144.963 Y192.129 E60.04302
G1 X144.063 Y192.683 E60.09575
G1 X143.366 Y193.066 E60.13542
G1 X142.595 Y193.448 E60.17835
G1 X141.929 Y193.739 E60.21461
G1 X141.061 Y194.065 E60.26087
G1 X140.247 Y194.324 E60.30349
G1 X139.444 Y194.534 E60.3449
G1 X138.659 Y194.705 E60.38498
G1 X137.948 Y194.824 E60.42094
G1 X136.973 Y194.934 E60.4699
G1 X136.166 Y194.988 E60.51025
G1 X135.675 Y195 E60.53475
G1 X84.281 Y195 E63.09881
G1 X83.452 Y194.97 E63.14019
G1 X82.718 Y194.909 E63.17694
G1 X81.803 Y194.787 E63.22299
G1 X81.17 Y194.673 E63.25508
G1 X80.165 Y194.434 E63.30662
G1 X79.402 Y194.214 E63.34624
G1 X78.579 Y193.932 E63.38964
G1 X77.827 Y193.633 E63.43001
G1 X77.061 Y193.286 E63.47197
G1 X76.378 Y192.933 E63.51032
G1 X75.671 Y192.526 E63.55102
G1 X74.935 Y192.051 E63.59473
G1 X74.209 Y191.532 E63.63925
G1 X73.597 Y191.042 E63.67836
G1 X72.956 Y190.482 E63.72083
G1 X72.41 Y189.954 E63.75872
G1 X71.854 Y189.365 E63.79913
G1 X71.227 Y188.625 E63.84752
G1 X70.765 Y188.027 E63.88522
G1 X70.343 Y187.419 E63.92215
G1 X69.812 Y186.553 E63.97283
G1 X69.416 Y185.836 E64.01369
G1 X69.057 Y185.106 E64.05428
G1 X68.726 Y184.335 E64.09614
G1 X68.435 Y183.558 E64.13753
G1 X68.171 Y182.727 E64.18103
G1 X67.966 Y181.944 E64.22141
G1 X67.795 Y181.159 E64.26149
G1 X67.676 Y180.448 E64.29746
G1 X67.566 Y179.473 E64.34641
G1 X67.512 Y178.666 E64.38676
G1 X67.5 Y178.176 E64.41122
G1 X67.5 Y41.781 E71.21599
G1 X67.53 Y40.952 E71.25738
G1 X67.591 Y40.218 E71.29412
G1 X67.713 Y39.303 E71.34017
G1 X67.827 Y38.67 E71.37226
G1 X68.065 Y37.666 E71.42374
G1 X68.284 Y36.904 E71.4633
G1 X68.553 Y36.119 E71.5047
G1 X68.877 Y35.302 E71.54854
G1 X69.209 Y34.57 E71.58864
G1 X69.576 Y33.859 E71.62856
G1 X70.002 Y33.13 E71.67069
G1 X70.457 Y32.421 E71.71272
G1 X70.964 Y31.715 E71.75608
G1 X71.467 Y31.086 E71.79626
G1 X71.995 Y30.48 E71.83636
G1 X72.519 Y29.935 E71.87408
G1 X73.171 Y29.324 E71.91866
G1 X73.876 Y28.728 E71.96472
G1 X74.517 Y28.234 E72.00509
G1 X75.037 Y27.871 E72.03673
G1 X75.937 Y27.317 E72.08946
G1 X76.634 Y26.934 E72.12913
G1 X77.405 Y26.552 E72.17206
G1 X78.071 Y26.261 E72.20832
G1 X78.939 Y25.935 E72.25458
G1 X79.753 Y25.676 E72.2972
G1 X80.556 Y25.466 E72.33861
G0 F7500 X81.407 Y25.69
G1 F1500 X82.118 Y25.571 E72.37457
G1 X83.054 Y25.465 E72.42157
G1 X83.844 Y25.412 E72.46107
G1 X84.335 Y25.4 E72.48557
G1 X135.706 Y25.4 E75.04848
G1 X136.505 Y25.429 E75.08837
G1 X137.315 Y25.497 E75.12892
G1 X137.912 Y25.574 E75.15895
G1 X138.918 Y25.759 E75.20999
G1 X139.718 Y25.946 E75.25097
G1 X140.364 Y26.131 E75.2845
G1 X141.266 Y26.436 E75.332
G1 X141.972 Y26.712 E75.36982
G1 X142.714 Y27.047 E75.41044
G1 X143.399 Y27.398 E75.44884
G1 X144.147 Y27.828 E75.49188
G1 X144.835 Y28.274 E75.53279
G1 X145.535 Y28.777 E75.57579
G1 X146.151 Y29.269 E75.61512
G1 X146.757 Y29.797 E75.65522
G1 X147.273 Y30.293 E75.69093
G1 X147.884 Y30.945 E75.73551
G1 X148.455 Y31.62 E75.77962
G1 X148.938 Y32.246 E75.81907
G1 X149.288 Y32.747 E75.84956
G1 X149.832 Y33.63 E75.9013
G1 X150.216 Y34.329 E75.94109
G1 X150.579 Y35.063 E75.98194
G1 X150.886 Y35.764 E76.02012
G1 X151.177 Y36.533 E76.06114
G1 X151.388 Y37.185 E76.09533
G1 X151.645 Y38.14 E76.14467
G1 X151.808 Y38.888 E76.18286
G1 X151.926 Y39.596 E76.21867
G1 X152.035 Y40.557 E76.26693
G1 X152.088 Y41.344 E76.30628
G1 X152.1 Y41.834 E76.33073
G1 X152.1 Y178.205 E83.13431
G1 X152.071 Y179.015 E83.17475
G1 X152.01 Y179.749 E83.21149
G1 X151.893 Y180.626 E83.25563
G1 X151.779 Y181.259 E83.28772
G1 X151.55 Y182.224 E83.3372
G1 X151.337 Y182.967 E83.37576
G1 X151.075 Y183.734 E83.4162
G1 X150.759 Y184.533 E83.45907
G1 X150.436 Y185.246 E83.49812
G1 X150.078 Y185.939 E83.53703
G1 X149.661 Y186.654 E83.57833
G1 X149.218 Y187.346 E83.61932
G1 X148.723 Y188.035 E83.66165
G1 X148.231 Y188.651 E83.70098
G1 X147.703 Y189.257 E83.74108
G1 X147.207 Y189.773 E83.77679
G1 X146.555 Y190.384 E83.82137
G1 X145.88 Y190.955 E83.86547
G1 X145.254 Y191.438 E83.90492
G1 X144.753 Y191.788 E83.93541
G1 X143.87 Y192.332 E83.98715
G1 X143.173 Y192.715 E84.02683
G1 X142.435 Y193.081 E84.06793
G1 X141.769 Y193.372 E84.10419
G1 X140.94 Y193.684 E84.14838
G1 X140.146 Y193.937 E84.18996
G1 X139.359 Y194.143 E84.23054
G1 X138.593 Y194.31 E84.26966
G1 X137.882 Y194.429 E84.30562
G1 X136.946 Y194.535 E84.35262
G1 X136.156 Y194.588 E84.39212
G1 X135.665 Y194.6 E84.41662
G1 X84.295 Y194.6 E86.97948
G1 X83.485 Y194.571 E87.01992
G1 X82.751 Y194.51 E87.05666
G1 X81.874 Y194.393 E87.10081
G1 X81.241 Y194.279 E87.13289
G1 X80.276 Y194.05 E87.18238
G1 X79.532 Y193.836 E87.221
G1 X78.727 Y193.56 E87.26345
G1 X77.975 Y193.261 E87.30383
G1 X77.245 Y192.931 E87.3438
G1 X76.577 Y192.586 E87.38131
G1 X75.888 Y192.19 E87.42095
G1 X75.152 Y191.715 E87.46466
G1 X74.459 Y191.22 E87.50714
G1 X73.86 Y190.741 E87.54541
G1 X73.234 Y190.195 E87.58685
G1 X72.701 Y189.679 E87.62386
G1 X72.159 Y189.106 E87.66321
G1 X71.544 Y188.38 E87.71068
G1 X71.082 Y187.782 E87.74838
G1 X70.684 Y187.21 E87.78315
G1 X70.162 Y186.359 E87.83295
G1 X69.775 Y185.659 E87.87286
G1 X69.425 Y184.948 E87.9124
G1 X69.094 Y184.177 E87.95426
G1 X68.816 Y183.437 E87.99369
G1 X68.558 Y182.626 E88.03615
G1 X68.357 Y181.859 E88.07571
G1 X68.19 Y181.093 E88.11482
G1 X68.071 Y180.382 E88.15079
G1 X67.965 Y179.446 E88.19779
G1 X67.912 Y178.656 E88.23729
G1 X67.9 Y178.166 E88.26174
G1 X67.9 Y41.795 E95.06532
G1 X67.929 Y40.985 E95.10575
G1 X67.99 Y40.251 E95.1425
G1 X68.107 Y39.374 E95.18664
G1 X68.221 Y38.741 E95.21873
G1 X68.45 Y37.776 E95.26821
G1 X68.663 Y37.033 E95.30677
G1 X68.925 Y36.266 E95.34721
G1 X69.241 Y35.467 E95.39008
G1 X69.564 Y34.754 E95.42913
G1 X69.922 Y34.061 E95.46804
G1 X70.339 Y33.346 E95.50934
G1 X70.782 Y32.654 E95.55033
G1 X71.277 Y31.965 E95.59266
G1 X71.769 Y31.349 E95.63199
G1 X72.297 Y30.743 E95.67209
G1 X72.793 Y30.227 E95.70779
G1 X73.445 Y29.616 E95.75237
G1 X74.12 Y29.045 E95.79648
G1 X74.746 Y28.562 E95.83593
